X: 12572
T: Farewell To Randolph
R: jig
M: 6/8
K: Gmajor
eee BAB|eBB BAG|eee BAB|dBG A3:|
GGG BAB|dBG AGE|GGG BAB|dBG A3:|

